img/chap-barg.svg

<svg width="300" height="395" viewBox="0 0 300 395" fill="none" xmlns="http://www.w3.org/2000/svg">
<g clip-path="url(#clip0_1_1394)">
<path d="M-166 507.954C-116.21 487.034 -70.6911 457.822 -31.5587 421.675C-9.43388 401.22 10.4692 378.709 29.8546 355.813C43.5459 339.663 57.0919 323.094 66.7584 304.42C75.6863 287.156 81.1187 268.482 85.9519 249.797C94.1566 218.186 100.853 186.256 106.041 154.006C112.189 115.707 116.097 76.0368 105.64 38.617C102.08 25.869 95.8744 12.4415 83.5091 6.66623C65.7755 -1.63195 44.8662 9.59565 30.3897 22.4717C9.73051 40.8503 -6.53741 63.2498 -22.2296 85.6994C-75.5235 161.937 -125.333 243.727 -139.484 334.517" fill="#194429"/>
<path d="M-36.4153 346.964C-22.8635 327.657 -10.3373 307.712 1.16323 287.128C12.6638 266.544 23.0748 245.451 32.3963 223.85C41.7216 202.338 49.9224 180.419 56.9988 158.094C64.0752 135.769 69.9922 113.184 74.7499 90.3385C79.5075 67.4303 83.0748 44.3328 85.4517 21.0459C85.7425 18.1499 86.0178 15.2483 86.2776 12.3412C86.6033 8.67102 80.6243 8.70444 80.2985 12.3412C78.2435 35.3941 74.9903 58.3079 70.5389 81.0824C66.0954 103.786 60.4963 126.249 53.7418 148.47C46.9872 170.692 39.0946 192.616 30.064 214.243C21.1186 235.636 11.0799 256.566 -0.0523567 277.031C-11.1846 297.496 -23.3501 317.423 -36.5491 336.811C-38.2125 339.247 -39.8914 341.675 -41.5859 344.096C-43.7379 347.159 -38.5557 350.021 -36.4153 346.964Z" fill="#153A23"/>
<path d="M74.2555 91.4526C81.2757 80.3141 82.5146 77.6297 91.4192 67.8612C92.4719 66.6973 104.372 54.2778 103.174 53.1361C102.08 52.0891 92.6231 59.4628 91.5413 60.6323C82.311 70.7572 76.3552 77.0115 69.0791 88.5677C67.0958 91.731 72.2664 94.6048 74.2555 91.4526Z" fill="#153A23"/>
<path d="M56.5859 160.244C64.8216 144.973 68.166 139.231 78.5828 125.308C79.5308 124.049 92.5766 109.948 91.2738 109.218C89.7615 108.377 83.1311 114.036 81.9271 115.099C61.6285 133.255 59.6569 142.071 51.4153 157.348C49.653 160.633 54.812 163.529 56.5859 160.244Z" fill="#153A23"/>
<path d="M39.1256 207.733C50.0213 190.015 61.8127 172.847 74.4998 156.228C78.0593 151.572 77.9895 151.528 81.6887 146.972C82.6774 145.753 89.0345 136.569 87.7957 135.383C86.7604 134.397 76.6286 144.037 75.634 145.268C62.2334 161.77 55.2016 171.978 43.6216 189.677C40.318 194.697 37.0997 199.758 33.9667 204.859C31.9892 208.045 37.1772 210.924 39.1256 207.733Z" fill="#153A23"/>
<path d="M20.1008 248.717C35.2695 237.578 54.7014 220.247 67.0667 206.279C86.6848 184.108 68.8116 195.452 62.8267 202.23C50.7988 215.802 36.299 227.214 21.5316 238.035C20.252 238.97 19.5774 240.508 20.4672 241.933C21.2059 243.142 18.7805 246.227 20.0717 245.275L20.1008 248.717Z" fill="#153A23"/>
<path d="M-87.2431 421.948C-61.995 416.696 -38.672 405.441 -17.9721 390.81C2.84993 376.108 20.9383 358.063 36.9445 338.643C56.0333 315.459 72.1966 290.247 88.4122 265.185C103.895 241.237 119.238 216.805 138.001 195.046C153.077 177.57 171.869 160.984 195.116 154.563C197.986 153.777 200.899 153.141 203.841 152.658L199.822 150.804C203.695 157.487 197.862 164.827 192.976 169.611C189.405 173.103 185.368 176.127 181.472 179.268L167.559 190.468C149.409 205.089 131.25 219.71 113.085 234.331C102.895 242.54 97.5436 247.369 87.3478 255.572C85.9635 256.686 80.9209 262.127 81.9213 263.514C82.8577 264.801 85.033 265.675 86.5743 264.695C110.341 249.508 139.377 243.844 167.454 248.917C166.71 246.879 165.965 244.846 165.221 242.791C141.371 263.065 113.995 279.179 84.335 290.402C76.0436 293.533 67.5937 296.263 59.0171 298.584L63.4257 302.176C67.8344 279.047 64.6471 254.782 54.8701 233.245C52.122 227.203 48.8353 221.399 45.0465 215.897C43.2726 213.319 39.6258 213.435 38.3172 216.37C28.9116 237.729 25.4739 261.065 28.3424 284.081C30.7735 303.685 39.1896 326.965 62.3614 330.59C73.2319 332.261 84.1256 328.919 94.9845 330.189C101.894 330.986 110.229 334.645 112.805 341.032C113.794 343.494 113.317 347.008 111.799 349.247C111.009 350.366 109.997 351.325 108.821 352.071C107.414 352.916 105.888 353.567 104.29 354.003C100.404 354.996 96.3745 355.372 92.3614 355.117C88.29 354.944 84.2187 354.56 80.4381 353.446C80.1706 353.363 79.9205 353.268 79.6646 353.168C79.083 352.945 80.1008 353.463 79.3912 353.006C78.7747 352.622 78.1698 352.238 77.5882 351.815C77.0066 351.391 77.5882 351.859 77.1404 351.464C76.8786 351.23 76.6227 351.001 76.3668 350.756C75.6979 350.122 75.0581 349.453 74.4416 348.768C71.9182 345.881 69.5648 342.862 67.3924 339.724C63.1931 333.87 59.0578 327.037 52.8519 322.905C51.5656 322.03 50.1339 321.371 48.6177 320.955C44.0985 319.808 41.772 326.43 46.3261 327.599C46.6285 327.677 46.9077 327.772 47.2276 327.867C47.5475 327.961 48.2862 328.385 47.5068 327.961C48.1316 328.296 48.7338 328.668 49.3098 329.075C50.4492 329.952 51.5006 330.929 52.4506 331.994C55.0846 334.95 57.5244 338.06 59.7557 341.305C64.0364 347.264 68.259 354.388 74.7092 358.464C77.9953 360.553 82.0725 361.06 85.8996 361.589C90.4078 362.218 94.9772 362.341 99.5153 361.956C107.809 361.232 116.563 357.835 119.628 349.815C122.85 341.383 118.086 333.141 110.717 328.485C107.021 326.178 102.896 324.573 98.5673 323.757C93.2105 322.738 87.8305 323.044 82.4156 323.456C71.7022 324.275 60.4246 325.539 51.4211 318.728C43.7379 312.908 39.7887 303.256 37.596 294.39C32.1345 272.236 34.1993 248.104 41.993 226.713C42.9934 223.98 44.0849 221.279 45.2675 218.609L38.5382 219.083C51.51 237.974 58.3095 260.137 58.069 282.745C57.9839 289.155 57.3361 295.547 56.1322 301.853C55.7193 304.025 58.4587 306.008 60.5409 305.451C92.2232 296.855 122.078 282.985 148.738 264.478C156.123 259.353 163.236 253.877 170.048 248.071C172.672 245.843 170.787 242.501 167.821 241.944C145.202 237.901 121.442 240.747 100.353 249.541C94.397 252.03 91.3319 253.439 85.917 256.909C87.2664 258.825 85.9868 262.3 87.3303 264.216C106.225 248.993 125.124 233.771 144.027 218.548L172.369 195.714L186.817 184.08C190.806 180.861 194.959 177.77 198.519 174.122C205.335 167.188 211.786 157.142 206.307 147.674C205.93 146.996 205.337 146.451 204.614 146.117C203.891 145.784 203.076 145.679 202.288 145.819C177.592 149.924 156.834 164.755 140.205 182.019C120.919 202.096 105.617 225.526 90.57 248.572C74.0927 273.873 58.1621 299.536 39.7538 323.573C24.178 343.895 6.65373 362.897 -13.7553 378.864C-33.1815 394.063 -55.3819 406.443 -79.6355 412.959C-82.6425 413.767 -85.6844 414.48 -88.7321 415.12C-93.3443 416.056 -91.8437 422.9 -87.2431 421.948Z" fill="#1F7A36"/>
<path d="M-3.99573 477.385C3.79799 492.132 11.8941 506.679 24.2012 517.428C39.6956 530.961 58.2319 541.888 79.8507 543.809C101.47 545.73 126.537 537.293 142.468 518.541C145.679 514.76 148.61 510.266 148.802 505.671C149.209 495.975 138.414 492.583 130.132 489.308C121.85 486.034 114.399 475.274 121.803 467.884L169.077 482.921C181.216 486.78 194.04 490.662 207.551 487.482C221.062 484.302 235.068 471.331 234.783 457.714C234.201 429.027 182.437 438.974 175.178 412.414C187.433 407.118 200.188 409.568 211.733 412.692C223.278 415.817 235.213 419.543 247.794 416.513C260.374 413.483 273.466 400.73 272.082 388.282C269.831 368.194 234.981 366.145 239.407 345.221C240.983 337.764 247.422 331.771 251.691 325.049C261.078 310.241 266.749 279.014 246.979 266.823C234.422 259.042 211 262.869 199.496 276.235C187.346 290.319 185.7 309.16 177.063 332.829C172.991 344.051 161.156 338.087 156.747 328.697C155.351 325.723 155.531 322.014 155.537 318.483C155.537 301.909 148.017 283.909 131.935 283.692C115.94 283.475 101.702 301.296 97.1307 317.893C92.5591 334.489 94.083 351.23 90.3257 367.916C89.5696 371.257 88.4878 374.838 85.9868 377.433C79.2051 384.473 68.6662 378.581 66.1361 370.411C63.6061 362.241 64.8565 352.294 60.634 345.132C55.7076 336.778 44.1218 334.656 33.8387 338.07C23.5556 341.484 14.5405 349.398 7.14812 358.103C-7.89259 375.857 -17.6347 397.973 -19.967 419.671C-19.967 419.687 -16.5646 453.615 -3.99573 477.385Z" fill="#198C36"/>
<path d="M129.434 106.679C126.747 98.8821 123.117 84.6861 121.937 76.5438C121.722 74.9622 121.937 72.8124 123.577 72.5507C125.078 72.2889 126.072 73.9653 126.596 75.3353C129.868 83.9639 133.116 92.6074 136.338 101.266C143.264 96.0192 151.421 92.4675 160.103 90.9181C160.345 90.8788 160.594 90.9035 160.823 90.9895C161.052 91.0754 161.252 91.2194 161.402 91.4059C161.552 91.5925 161.646 91.8146 161.675 92.0485C161.703 92.2824 161.664 92.5192 161.563 92.7336C159.162 97.7841 155.18 101.994 150.169 104.78C148.354 105.777 146.249 106.813 145.743 108.751C145.417 110.004 145.917 111.29 146.365 112.499C149.187 119.985 150.959 127.796 151.634 135.728C151.649 136.035 151.567 136.339 151.399 136.6C151.231 136.861 150.985 137.068 150.692 137.193C150.399 137.318 150.074 137.356 149.759 137.301C149.443 137.247 149.152 137.102 148.924 136.887C143.561 131.936 141.817 123.704 137.414 117.617C136.985 116.88 136.32 116.295 135.518 115.946C134.488 115.601 133.348 115.946 132.33 116.336C124.398 119.183 116.254 121.456 107.966 123.136C105.727 123.576 102.342 123.008 102.767 120.908C102.953 120.264 103.348 119.692 103.895 119.277C107.507 115.962 111.761 113.355 116.417 111.602L129.434 106.679Z" fill="#FBC8B8"/>
<path d="M160.789 41.4408C155.525 46.2081 156.822 56.2884 165.838 53.8714C179.139 50.2903 169.798 33.2763 160.789 41.4408Z" fill="#F7BC28"/>
<path d="M273.629 323.328C268.395 328.101 269.669 338.176 278.678 335.759C291.974 332.178 282.668 315.169 273.629 323.328Z" fill="#F7BC28"/>
<path d="M288.519 348.574C286.041 350.696 286.658 355.173 290.898 354.104C297.162 352.533 292.759 344.948 288.519 348.574Z" fill="#F7BC28"/>
</g>
<defs>
<clipPath id="clip0_1_1394">
<rect width="300" height="400" fill="white"/>
</clipPath>
</defs>
</svg>

<svg width="300" height="395" fill="none" xmlns="http://www.w3.org/2000/svg"><g clip-path="url(#a)"><path d="M-166 507.954c49.79-20.92 95.309-50.132 134.441-86.279 22.125-20.455 42.028-42.966 61.414-65.862 13.69-16.15 27.237-32.719 36.903-51.393 8.928-17.264 14.36-35.938 19.194-54.623a1036.1 1036.1 0 0 0 20.089-95.791c6.148-38.299 10.056-77.97-.401-115.389-3.56-12.748-9.766-26.175-22.13-31.95-17.735-8.299-38.644 2.929-53.12 15.805C9.73 40.85-6.537 63.25-22.23 85.699c-53.293 76.238-103.103 158.028-117.254 248.818" fill="#194429"/><path d="M-36.415 346.964A690.873 690.873 0 0 0 32.397 223.85a687.571 687.571 0 0 0 24.602-65.756 689.019 689.019 0 0 0 17.75-67.755 680.224 680.224 0 0 0 10.703-69.293c.29-2.896.566-5.798.826-8.705.325-3.67-5.654-3.637-5.98 0a666.72 666.72 0 0 1-9.76 68.741 681.946 681.946 0 0 1-16.796 67.388 695.66 695.66 0 0 1-23.678 65.773A681.594 681.594 0 0 1-.052 277.031a703.695 703.695 0 0 1-36.497 59.78 766.515 766.515 0 0 1-5.037 7.285c-2.152 3.063 3.03 5.925 5.17 2.868Z" fill="#153A23"/><path d="M74.255 91.453c7.02-11.139 8.26-13.823 17.164-23.592 1.053-1.164 12.953-13.583 11.755-14.725-1.094-1.047-10.55 6.327-11.633 7.496-9.23 10.125-15.186 16.38-22.462 27.936-1.983 3.163 3.187 6.037 5.177 2.885ZM56.586 160.244c8.236-15.271 11.58-21.013 21.997-34.936.948-1.259 13.994-15.36 12.69-16.09-1.511-.841-8.142 4.818-9.346 5.881-20.299 18.156-22.27 26.972-30.512 42.249-1.762 3.285 3.397 6.181 5.17 2.896ZM39.126 207.733A620.429 620.429 0 0 1 74.5 156.228c3.56-4.656 3.49-4.7 7.189-9.256.988-1.219 7.346-10.403 6.107-11.589-1.036-.986-11.167 8.654-12.162 9.885-13.4 16.502-20.432 26.71-32.012 44.409a575.757 575.757 0 0 0-9.655 15.182c-1.978 3.186 3.21 6.065 5.159 2.874ZM20.1 248.717c15.17-11.139 34.601-28.47 46.967-42.438 19.618-22.171 1.745-10.827-4.24-4.049-12.028 13.572-26.528 24.984-41.295 35.805-1.28.935-1.955 2.473-1.065 3.898.739 1.209-1.686 4.294-.395 3.342l.029 3.442Z" fill="#153A23"/><path d="M-87.243 421.948c25.248-5.252 48.571-16.507 69.27-31.138 20.823-14.702 38.911-32.747 54.917-52.167 19.09-23.184 35.253-48.396 51.468-73.458 15.483-23.948 30.826-48.38 49.589-70.139 15.076-17.476 33.868-34.062 57.115-40.483a85.435 85.435 0 0 1 8.725-1.905l-4.019-1.854c3.873 6.683-1.96 14.023-6.846 18.807-3.571 3.492-7.608 6.516-11.504 9.657l-13.913 11.2c-18.15 14.621-36.309 29.242-54.474 43.863-10.19 8.209-15.541 13.038-25.737 21.241-1.385 1.114-6.427 6.555-5.427 7.942.937 1.287 3.112 2.161 4.653 1.181 23.767-15.187 52.803-20.851 80.88-15.778-.744-2.038-1.489-4.071-2.233-6.126-23.85 20.274-51.226 36.388-80.886 47.611a275.051 275.051 0 0 1-25.318 8.182l4.409 3.592c4.408-23.129 1.221-47.394-8.556-68.931a113.293 113.293 0 0 0-9.823-17.348c-1.774-2.578-5.421-2.462-6.73.473-9.405 21.359-12.843 44.695-9.975 67.711 2.431 19.604 10.848 42.884 34.02 46.509 10.87 1.671 21.764-1.671 32.622-.401 6.91.797 15.245 4.456 17.821 10.843.989 2.462.512 5.976-1.006 8.215a10.57 10.57 0 0 1-2.978 2.824 18.011 18.011 0 0 1-4.531 1.932 38.376 38.376 0 0 1-11.929 1.114c-4.071-.173-8.142-.557-11.923-1.671a11.308 11.308 0 0 1-.773-.278c-.582-.223.436.295-.274-.162a30.07 30.07 0 0 1-1.803-1.191c-.581-.424 0 .044-.448-.351a30.303 30.303 0 0 1-.773-.708 34.926 34.926 0 0 1-1.925-1.988 101.737 101.737 0 0 1-7.05-9.044c-4.199-5.854-8.334-12.687-14.54-16.819a14.214 14.214 0 0 0-4.234-1.95c-4.52-1.147-6.846 5.475-2.292 6.644.303.078.582.173.902.268.32.094 1.058.518.279.094.625.335 1.227.707 1.803 1.114 1.14.877 2.19 1.854 3.14 2.919a94.368 94.368 0 0 1 7.306 9.311c4.28 5.959 8.503 13.083 14.953 17.159 3.286 2.089 7.364 2.596 11.19 3.125a61.15 61.15 0 0 0 13.616.367c8.294-.724 17.048-4.121 20.113-12.141 3.222-8.432-1.542-16.674-8.911-21.33a35.3 35.3 0 0 0-12.15-4.728c-5.356-1.019-10.736-.713-16.151-.301-10.714.819-21.991 2.083-30.995-4.728-7.683-5.82-11.632-15.472-13.825-24.338-5.461-22.154-3.397-46.286 4.397-67.677 1-2.733 2.092-5.434 3.274-8.104l-6.729.474c12.972 18.891 19.772 41.054 19.531 63.662a109.642 109.642 0 0 1-1.937 19.108c-.413 2.172 2.327 4.155 4.409 3.598 31.682-8.596 61.537-22.466 88.197-40.973a271.324 271.324 0 0 0 21.31-16.407c2.624-2.228.739-5.57-2.227-6.127-22.619-4.043-46.379-1.197-67.468 7.597-5.956 2.489-9.021 3.898-14.436 7.368 1.35 1.916.07 5.391 1.413 7.307 18.895-15.223 37.794-30.445 56.697-45.668l28.342-22.834 14.448-11.634c3.989-3.219 8.142-6.31 11.702-9.958 6.816-6.934 13.267-16.98 7.788-26.448a3.71 3.71 0 0 0-1.693-1.557 3.929 3.929 0 0 0-2.326-.298c-24.696 4.105-45.454 18.936-62.083 36.2-19.286 20.077-34.588 43.507-49.635 66.553-16.477 25.301-32.408 50.964-50.816 75.001-15.576 20.322-33.1 39.324-53.51 55.291-19.425 15.199-41.626 27.579-65.88 34.095a168.606 168.606 0 0 1-9.096 2.161c-4.612.936-3.112 7.78 1.489 6.828Z" fill="#1F7A36"/><path d="M-3.996 477.385c7.794 14.747 15.89 29.294 28.197 40.043 15.495 13.533 34.03 24.46 55.65 26.381 21.619 1.921 46.686-6.516 62.617-25.268 3.211-3.781 6.142-8.275 6.334-12.87.407-9.696-10.388-13.088-18.67-16.363-8.282-3.274-15.733-14.034-8.329-21.424l47.274 15.037c12.139 3.859 24.963 7.741 38.474 4.561 13.511-3.18 27.517-16.151 27.232-29.768-.582-28.687-52.346-18.74-59.605-45.3 12.255-5.296 25.01-2.846 36.555.278 11.545 3.125 23.48 6.851 36.061 3.821 12.58-3.03 25.672-15.783 24.288-28.231-2.251-20.088-37.101-22.137-32.675-43.061 1.576-7.457 8.015-13.45 12.284-20.172 9.387-14.808 15.058-46.035-4.712-58.226-12.557-7.781-35.979-3.954-47.483 9.412-12.15 14.084-13.796 32.925-22.433 56.594-4.072 11.222-15.907 5.258-20.316-4.132-1.396-2.974-1.216-6.683-1.21-10.214 0-16.574-7.52-34.574-23.602-34.791-15.995-.217-30.233 17.604-34.804 34.201-4.572 16.596-3.048 33.337-6.805 50.023-.756 3.341-1.838 6.922-4.34 9.517-6.78 7.04-17.32 1.148-19.85-7.022-2.53-8.17-1.28-18.117-5.502-25.279-4.926-8.354-16.512-10.476-26.795-7.062-10.283 3.414-19.298 11.328-26.69 20.033-15.042 17.754-24.784 39.87-27.116 61.568 0 .016 3.402 33.944 15.971 57.714Z" fill="#198C36"/><path d="M129.434 106.679c-2.687-7.797-6.317-21.993-7.497-30.135-.215-1.582 0-3.732 1.64-3.993 1.501-.262 2.495 1.414 3.019 2.784 3.272 8.629 6.52 17.272 9.742 25.931 6.926-5.247 15.083-8.799 23.765-10.348.242-.04.491-.015.72.072.229.085.429.23.579.416a1.256 1.256 0 0 1 .161 1.328c-2.401 5.05-6.383 9.26-11.394 12.046-1.815.997-3.92 2.033-4.426 3.971-.326 1.253.174 2.539.622 3.748a86.668 86.668 0 0 1 5.269 23.229c.015.307-.067.611-.235.872a1.573 1.573 0 0 1-.707.593 1.656 1.656 0 0 1-1.768-.306c-5.363-4.951-7.107-13.183-11.51-19.27a4.06 4.06 0 0 0-1.896-1.671c-1.03-.345-2.17 0-3.188.39a175.086 175.086 0 0 1-24.364 6.8c-2.239.44-5.624-.128-5.199-2.228a3.149 3.149 0 0 1 1.128-1.631 38.652 38.652 0 0 1 12.522-7.675l13.017-4.923Z" fill="#FBC8B8"/><path d="M160.789 41.44c-5.264 4.768-3.967 14.848 5.049 12.431 13.301-3.58 3.96-20.595-5.049-12.43ZM273.629 323.328c-5.234 4.773-3.96 14.848 5.049 12.431 13.296-3.581 3.99-20.59-5.049-12.431ZM288.519 348.574c-2.478 2.122-1.861 6.599 2.379 5.53 6.264-1.571 1.861-9.156-2.379-5.53Z" fill="#F7BC28"/></g><defs><clipPath id="a"><path fill="#fff" d="M0 0h300v400H0z"/></clipPath></defs></svg>
